X:1
T: Miss Georgina B. Stewart of West Park,
C:William Marshall
R:Reel
Q: 232
K:F
M:4/4
L:1/8
|:F2 CF A,F CF|cA FA G1/2G1/2G G2|F2 CF A,F CF|fd cA F1/2F1/2F F2|
F2 CF A,F CF|cA FA G1/2G1/2G G2|F2 CF A,F CF|fd cA F1/2F1/2F F2|
f2 af ec bg|f2 af ec ge|f2 af g2 bg|af ce f1/2f1/2f f2|
f2 af ec bg|f2 af ec fc|dB fB cA fA|CF EG F1/2F1/2F F2:|
